X: 12190
T: Faces In The Street
R: reel
M: 4/4
K: Aminor
|:e3d c3d|efed c2A2|GABG ABcA|d3c BAGE|
e3d c3d|efed c2A2|GABG AGED|EGAB A4||
|:e3f^ g3f^|ef^ed c2A2|BcdB c2de|f^3g f^ed2|
1 e3f^ g3f^|ef^ed c2A2|GABG AGED|EGAB A4:|
2 e3f^ g3a|bc'ba g2e2|d3c (3BAG ED|EGAB A4||

